app/images/curve-high.svg

<svg width="162" height="32" viewBox="0 0 162 32" fill="none" xmlns="http://www.w3.org/2000/svg">
<g clip-path="url(#clip0_2140_17920)">
<rect width="161" height="31" transform="translate(0.8125 0.0820312)" fill="white"/>
<path d="M117.469 8.63798H118.499L120.889 14.288L123.289 8.63798H124.299L121.279 15.738H120.499L117.469 8.63798Z" fill="#F66A0A"/>
<path d="M126.795 15.838C126.409 15.838 126.055 15.7713 125.735 15.638C125.415 15.5046 125.142 15.3213 124.915 15.088C124.689 14.8546 124.512 14.5813 124.385 14.268C124.265 13.948 124.205 13.6046 124.205 13.238C124.205 12.8713 124.269 12.5313 124.395 12.218C124.522 11.898 124.699 11.6213 124.925 11.388C125.159 11.1546 125.435 10.9713 125.755 10.838C126.075 10.7046 126.425 10.638 126.805 10.638C127.132 10.638 127.439 10.6946 127.725 10.808C128.012 10.9146 128.262 11.078 128.475 11.298C128.695 11.5113 128.869 11.7746 128.995 12.088C129.122 12.3946 129.185 12.748 129.185 13.148C129.185 13.1946 129.185 13.238 129.185 13.278C129.185 13.3113 129.182 13.3546 129.175 13.408H125.075C125.082 13.6413 125.129 13.858 125.215 14.058C125.309 14.258 125.429 14.4313 125.575 14.578C125.729 14.7246 125.909 14.8413 126.115 14.928C126.329 15.008 126.559 15.048 126.805 15.048C127.192 15.048 127.509 14.9713 127.755 14.818C128.009 14.658 128.212 14.4446 128.365 14.178L129.045 14.648C128.819 15.0146 128.515 15.3046 128.135 15.518C127.762 15.7313 127.315 15.838 126.795 15.838ZM128.305 12.708C128.272 12.5013 128.209 12.318 128.115 12.158C128.029 11.998 127.915 11.8613 127.775 11.748C127.642 11.6346 127.489 11.548 127.315 11.488C127.142 11.428 126.962 11.398 126.775 11.398C126.589 11.398 126.405 11.428 126.225 11.488C126.045 11.548 125.882 11.6346 125.735 11.748C125.589 11.8546 125.462 11.9913 125.355 12.158C125.249 12.318 125.175 12.5013 125.135 12.708H128.305Z" fill="#F66A0A"/>
<path d="M130.406 10.738H131.266V11.708C131.312 11.548 131.386 11.4046 131.486 11.278C131.586 11.1513 131.699 11.0446 131.826 10.958C131.952 10.8713 132.086 10.8046 132.226 10.758C132.372 10.7113 132.519 10.688 132.666 10.688C132.799 10.688 132.929 10.7013 133.056 10.728V11.618C132.976 11.5846 132.899 11.5646 132.826 11.558C132.752 11.5446 132.672 11.538 132.586 11.538C132.426 11.538 132.266 11.5746 132.106 11.648C131.952 11.7146 131.812 11.818 131.686 11.958C131.566 12.098 131.466 12.278 131.386 12.498C131.306 12.7113 131.266 12.9646 131.266 13.258V15.738H130.406V10.738Z" fill="#F66A0A"/>
<path d="M134.438 17.828L135.528 15.478L133.338 10.738H134.288L136.008 14.538L137.718 10.738H138.678L135.398 17.828H134.438Z" fill="#F66A0A"/>
<path d="M141.724 15.738V8.23798H142.584V11.508C142.757 11.208 142.984 10.988 143.264 10.848C143.544 10.708 143.847 10.638 144.174 10.638C144.454 10.638 144.711 10.6846 144.944 10.778C145.177 10.8713 145.374 11.008 145.534 11.188C145.701 11.3613 145.831 11.5746 145.924 11.828C146.017 12.0746 146.064 12.3513 146.064 12.658V15.738H145.214V12.788C145.214 12.368 145.104 12.038 144.884 11.798C144.671 11.5513 144.387 11.428 144.034 11.428C143.834 11.428 143.644 11.468 143.464 11.548C143.291 11.628 143.137 11.748 143.004 11.908C142.877 12.0613 142.774 12.2513 142.694 12.478C142.621 12.7046 142.584 12.9646 142.584 13.258V15.738H141.724Z" fill="#F66A0A"/>
<path d="M148.053 9.39798C147.879 9.39798 147.733 9.34131 147.613 9.22798C147.493 9.10798 147.433 8.96131 147.433 8.78798C147.433 8.62131 147.493 8.47798 147.613 8.35798C147.733 8.23798 147.879 8.17798 148.053 8.17798C148.226 8.17798 148.369 8.23798 148.483 8.35798C148.596 8.47798 148.653 8.62131 148.653 8.78798C148.653 8.96131 148.596 9.10798 148.483 9.22798C148.369 9.34131 148.226 9.39798 148.053 9.39798ZM147.613 10.738H148.473V15.738H147.613V10.738Z" fill="#F66A0A"/>
<path d="M152.283 14.928C152.53 14.928 152.756 14.8846 152.963 14.798C153.176 14.7113 153.356 14.5913 153.503 14.438C153.65 14.278 153.763 14.0913 153.843 13.878C153.93 13.6646 153.973 13.4313 153.973 13.178C153.973 12.9313 153.93 12.7013 153.843 12.488C153.763 12.268 153.65 12.0813 153.503 11.928C153.356 11.7746 153.176 11.6546 152.963 11.568C152.756 11.4746 152.53 11.428 152.283 11.428C152.03 11.428 151.8 11.4746 151.593 11.568C151.386 11.6546 151.21 11.7746 151.063 11.928C150.916 12.0813 150.8 12.268 150.713 12.488C150.633 12.7013 150.593 12.9313 150.593 13.178C150.593 13.4313 150.633 13.6646 150.713 13.878C150.8 14.0913 150.916 14.278 151.063 14.438C151.21 14.5913 151.386 14.7113 151.593 14.798C151.8 14.8846 152.03 14.928 152.283 14.928ZM152.233 17.928C151.693 17.928 151.22 17.828 150.813 17.628C150.406 17.428 150.096 17.188 149.883 16.908L150.483 16.308C150.683 16.5613 150.926 16.7646 151.213 16.918C151.506 17.0713 151.846 17.148 152.233 17.148C152.446 17.148 152.653 17.1146 152.853 17.048C153.053 16.9813 153.23 16.8746 153.383 16.728C153.543 16.588 153.67 16.408 153.763 16.188C153.856 15.9746 153.903 15.718 153.903 15.418V14.848C153.73 15.1013 153.49 15.3113 153.183 15.478C152.876 15.6446 152.536 15.728 152.163 15.728C151.816 15.728 151.493 15.6646 151.193 15.538C150.893 15.4046 150.633 15.2246 150.413 14.998C150.193 14.7646 150.02 14.4946 149.893 14.188C149.773 13.8746 149.713 13.538 149.713 13.178C149.713 12.8246 149.773 12.4946 149.893 12.188C150.02 11.8746 150.193 11.6046 150.413 11.378C150.633 11.1446 150.893 10.9646 151.193 10.838C151.493 10.7046 151.816 10.638 152.163 10.638C152.536 10.638 152.876 10.7213 153.183 10.888C153.49 11.048 153.73 11.2546 153.903 11.508V10.738H154.763V15.448C154.763 15.868 154.696 16.2313 154.563 16.538C154.436 16.8513 154.26 17.108 154.033 17.308C153.806 17.5146 153.54 17.668 153.233 17.768C152.926 17.8746 152.593 17.928 152.233 17.928Z" fill="#F66A0A"/>
<path d="M156.382 15.738V8.23798H157.242V11.508C157.416 11.208 157.642 10.988 157.922 10.848C158.202 10.708 158.506 10.638 158.832 10.638C159.112 10.638 159.369 10.6846 159.602 10.778C159.836 10.8713 160.032 11.008 160.192 11.188C160.359 11.3613 160.489 11.5746 160.582 11.828C160.676 12.0746 160.722 12.3513 160.722 12.658V15.738H159.872V12.788C159.872 12.368 159.762 12.038 159.542 11.798C159.329 11.5513 159.046 11.428 158.692 11.428C158.492 11.428 158.302 11.468 158.122 11.548C157.949 11.628 157.796 11.748 157.662 11.908C157.536 12.0613 157.432 12.2513 157.352 12.478C157.279 12.7046 157.242 12.9646 157.242 13.258V15.738H156.382Z" fill="#F66A0A"/>
<path opacity="0.3" d="M45.774 22.738C35.0101 30.158 26.3574 30.738 26.3574 30.738H136.608C136.608 30.738 127.955 30.158 117.191 22.738C106.427 15.3181 93.8273 0.738037 81.4825 0.738037C69.1377 0.738037 56.5378 15.3181 45.774 22.738Z" fill="#037DD6"/>
<mask id="mask0_2140_17920" style="mask-type:alpha" maskUnits="userSpaceOnUse" x="26" y="0" width="111" height="31">
<path d="M45.774 22.6052C35.0101 30.0252 26.3574 30.6052 26.3574 30.6052H136.608C136.608 30.6052 127.955 30.0252 117.191 22.6052C106.427 15.1853 93.8273 0.605225 81.4825 0.605225C69.1377 0.605225 56.5378 15.1853 45.774 22.6052Z" fill="#EAF6FF"/>
</mask>
<g mask="url(#mask0_2140_17920)">
<rect x="118.254" y="-5.20923" width="20.7061" height="39.25" fill="#F66A0A" stroke="white" stroke-width="2"/>
</g>
</g>
<defs>
<clipPath id="clip0_2140_17920">
<rect width="161" height="31" fill="white" transform="translate(0.8125 0.0820312)"/>
</clipPath>
</defs>
</svg>

<svg width="162" height="32" fill="none" xmlns="http://www.w3.org/2000/svg"><g clip-path="url(#a)"><path fill="#fff" d="M.813.082h161v31h-161z"/><path d="M117.469 8.638h1.03l2.39 5.65 2.4-5.65h1.01l-3.02 7.1h-.78l-3.03-7.1ZM126.795 15.838c-.386 0-.74-.067-1.06-.2a2.436 2.436 0 0 1-1.35-1.37 2.91 2.91 0 0 1-.18-1.03c0-.367.064-.707.19-1.02.127-.32.304-.597.53-.83.234-.233.51-.417.83-.55.32-.133.67-.2 1.05-.2.327 0 .634.057.92.17.287.107.537.27.75.49.22.213.394.477.52.79.127.307.19.66.19 1.06v.13c0 .033-.003.077-.01.13h-4.1c.007.233.054.45.14.65.094.2.214.373.36.52.154.147.334.263.54.35.214.08.444.12.69.12.387 0 .704-.077.95-.23.254-.16.457-.373.61-.64l.68.47c-.226.367-.53.657-.91.87-.373.213-.82.32-1.34.32Zm1.51-3.13a1.56 1.56 0 0 0-.19-.55c-.086-.16-.2-.297-.34-.41a1.408 1.408 0 0 0-.46-.26 1.636 1.636 0 0 0-.54-.09 1.732 1.732 0 0 0-1.04.35 1.512 1.512 0 0 0-.38.41c-.106.16-.18.343-.22.55h3.17ZM130.406 10.738h.86v.97c.046-.16.12-.303.22-.43s.213-.233.34-.32a1.59 1.59 0 0 1 .4-.2c.146-.047.293-.07.44-.07.133 0 .263.013.39.04v.89a.782.782 0 0 0-.23-.06 1.348 1.348 0 0 0-.24-.02c-.16 0-.32.037-.48.11-.154.067-.294.17-.42.31-.12.14-.22.32-.3.54-.08.213-.12.467-.12.76v2.48h-.86v-5ZM134.438 17.828l1.09-2.35-2.19-4.74h.95l1.72 3.8 1.71-3.8h.96l-3.28 7.09h-.96ZM141.724 15.738v-7.5h.86v3.27c.173-.3.4-.52.68-.66s.583-.21.91-.21c.28 0 .537.047.77.14.233.093.43.23.59.41.167.173.297.387.39.64.093.247.14.523.14.83v3.08h-.85v-2.95c0-.42-.11-.75-.33-.99-.213-.247-.497-.37-.85-.37-.2 0-.39.04-.57.12-.173.08-.327.2-.46.36-.127.153-.23.343-.31.57-.073.227-.11.487-.11.78v2.48h-.86ZM148.053 9.398a.599.599 0 0 1-.62-.61c0-.167.06-.31.18-.43s.266-.18.44-.18c.173 0 .316.06.43.18.113.12.17.263.17.43 0 .173-.057.32-.17.44a.584.584 0 0 1-.43.17Zm-.44 1.34h.86v5h-.86v-5ZM152.283 14.928c.247 0 .473-.043.68-.13.213-.087.393-.207.54-.36a1.7 1.7 0 0 0 .34-.56c.087-.213.13-.447.13-.7a1.81 1.81 0 0 0-.13-.69 1.573 1.573 0 0 0-.34-.56 1.54 1.54 0 0 0-.54-.36 1.632 1.632 0 0 0-.68-.14c-.253 0-.483.047-.69.14a1.554 1.554 0 0 0-.53.36 1.7 1.7 0 0 0-.35.56c-.08.213-.12.443-.12.69 0 .253.04.487.12.7.087.213.203.4.35.56.147.153.323.273.53.36.207.087.437.13.69.13Zm-.05 3c-.54 0-1.013-.1-1.42-.3-.407-.2-.717-.44-.93-.72l.6-.6c.2.253.443.457.73.61.293.153.633.23 1.02.23.213 0 .42-.033.62-.1s.377-.173.53-.32c.16-.14.287-.32.38-.54.093-.213.14-.47.14-.77v-.57a2.015 2.015 0 0 1-.72.63c-.307.167-.647.25-1.02.25-.347 0-.67-.063-.97-.19-.3-.133-.56-.313-.78-.54a2.643 2.643 0 0 1-.52-.81 2.8 2.8 0 0 1-.18-1.01c0-.353.06-.683.18-.99.127-.313.3-.583.52-.81.22-.233.48-.413.78-.54.3-.133.623-.2.97-.2.373 0 .713.083 1.02.25.307.16.547.367.72.62v-.77h.86v4.71c0 .42-.067.783-.2 1.09-.127.313-.303.57-.53.77a2.17 2.17 0 0 1-.8.46c-.307.107-.64.16-1 .16ZM156.382 15.738v-7.5h.86v3.27c.174-.3.4-.52.68-.66s.584-.21.91-.21c.28 0 .537.047.77.14.234.093.43.23.59.41.167.173.297.387.39.64.094.247.14.523.14.83v3.08h-.85v-2.95c0-.42-.11-.75-.33-.99-.213-.247-.496-.37-.85-.37-.2 0-.39.04-.57.12-.173.08-.326.2-.46.36-.126.153-.23.343-.31.57-.073.227-.11.487-.11.78v2.48h-.86Z" fill="#F66A0A"/><path opacity=".3" d="M45.774 22.738c-10.764 7.42-19.417 8-19.417 8h110.251s-8.653-.58-19.417-8c-10.764-7.42-23.364-22-35.709-22-12.344 0-24.944 14.58-35.708 22Z" fill="#037DD6"/><mask id="b" style="mask-type:alpha" maskUnits="userSpaceOnUse" x="26" y="0" width="111" height="31"><path d="M45.774 22.605c-10.764 7.42-19.417 8-19.417 8h110.251s-8.653-.58-19.417-8c-10.764-7.42-23.364-22-35.709-22-12.344 0-24.944 14.58-35.708 22Z" fill="#EAF6FF"/></mask><g mask="url(#b)"><path fill="#F66A0A" stroke="#fff" stroke-width="2" d="M118.254-5.209h20.706v39.25h-20.706z"/></g></g><defs><clipPath id="a"><path fill="#fff" transform="translate(.813 .082)" d="M0 0h161v31H0z"/></clipPath></defs></svg>
